X: 35623
T: Sail Away Ladies
R: reel
M: 4/4
K: Gmajor
B2 BG AGBG|B3A GB3-|BAGE D2 E2|G3A G2 G2|
B2 BG AGBG|B3A GB3-|BAGE D2 E2|G3A G2 G2:|
g2 g2 ge d2|e3f e3g|g2 g2 ed B2|d3e d2 e2|
e2 ed BAGA|A3G G3B|BAGE D2 E2|G3A G2 G2:|

